bernoullicharts/pow_x_3_4__bound.svg

<?xml version="1.0" encoding="utf-8" standalone="no"?>
<!DOCTYPE svg PUBLIC "-//W3C//DTD SVG 1.1//EN"
  "http://www.w3.org/Graphics/SVG/1.1/DTD/svg11.dtd">
<!-- Created with matplotlib (https://matplotlib.org/) -->
<svg height="345.6pt" version="1.1" viewBox="0 0 460.8 345.6" width="460.8pt" xmlns="http://www.w3.org/2000/svg" xmlns:xlink="http://www.w3.org/1999/xlink">
 <defs>
  <style type="text/css">
*{stroke-linecap:butt;stroke-linejoin:round;}
  </style>
 </defs>
 <g id="figure_1">
  <g id="patch_1">
   <path d="M 0 345.6 
L 460.8 345.6 
L 460.8 0 
L 0 0 
z
" style="fill:#ffffff;"/>
  </g>
  <g id="axes_1">
   <g id="patch_2">
    <path d="M 57.6 307.584 
L 414.72 307.584 
L 414.72 41.472 
L 57.6 41.472 
z
" style="fill:#ffffff;"/>
   </g>
   <g id="matplotlib.axis_1">
    <g id="xtick_1">
     <g id="line2d_1">
      <defs>
       <path d="M 0 0 
L 0 3.5 
" id="ma28374aa8e" style="stroke:#000000;stroke-width:0.8;"/>
      </defs>
      <g>
       <use style="stroke:#000000;stroke-width:0.8;" x="73.800255" xlink:href="#ma28374aa8e" y="307.584"/>
      </g>
     </g>
     <g id="text_1">
      <text style="font-family:DejaVu Sans;font-size:10px;font-style:normal;font-weight:normal;text-anchor:middle;" transform="rotate(-0, 73.800255, 322.182437)" x="73.800255" y="322.182437">0.0</text>
     </g>
    </g>
    <g id="xtick_2">
     <g id="line2d_2">
      <g>
       <use style="stroke:#000000;stroke-width:0.8;" x="138.744153" xlink:href="#ma28374aa8e" y="307.584"/>
      </g>
     </g>
     <g id="text_2">
      <text style="font-family:DejaVu Sans;font-size:10px;font-style:normal;font-weight:normal;text-anchor:middle;" transform="rotate(-0, 138.744153, 322.182437)" x="138.744153" y="322.182437">0.2</text>
     </g>
    </g>
    <g id="xtick_3">
     <g id="line2d_3">
      <g>
       <use style="stroke:#000000;stroke-width:0.8;" x="203.688051" xlink:href="#ma28374aa8e" y="307.584"/>
      </g>
     </g>
     <g id="text_3">
      <text style="font-family:DejaVu Sans;font-size:10px;font-style:normal;font-weight:normal;text-anchor:middle;" transform="rotate(-0, 203.688051, 322.182437)" x="203.688051" y="322.182437">0.4</text>
     </g>
    </g>
    <g id="xtick_4">
     <g id="line2d_4">
      <g>
       <use style="stroke:#000000;stroke-width:0.8;" x="268.631949" xlink:href="#ma28374aa8e" y="307.584"/>
      </g>
     </g>
     <g id="text_4">
      <text style="font-family:DejaVu Sans;font-size:10px;font-style:normal;font-weight:normal;text-anchor:middle;" transform="rotate(-0, 268.631949, 322.182437)" x="268.631949" y="322.182437">0.6</text>
     </g>
    </g>
    <g id="xtick_5">
     <g id="line2d_5">
      <g>
       <use style="stroke:#000000;stroke-width:0.8;" x="333.575847" xlink:href="#ma28374aa8e" y="307.584"/>
      </g>
     </g>
     <g id="text_5">
      <text style="font-family:DejaVu Sans;font-size:10px;font-style:normal;font-weight:normal;text-anchor:middle;" transform="rotate(-0, 333.575847, 322.182437)" x="333.575847" y="322.182437">0.8</text>
     </g>
    </g>
    <g id="xtick_6">
     <g id="line2d_6">
      <g>
       <use style="stroke:#000000;stroke-width:0.8;" x="398.519745" xlink:href="#ma28374aa8e" y="307.584"/>
      </g>
     </g>
     <g id="text_6">
      <text style="font-family:DejaVu Sans;font-size:10px;font-style:normal;font-weight:normal;text-anchor:middle;" transform="rotate(-0, 398.519745, 322.182437)" x="398.519745" y="322.182437">1.0</text>
     </g>
    </g>
    <g id="text_7">
     <text style="font-family:DejaVu Sans;font-size:10px;font-style:normal;font-weight:normal;text-anchor:middle;" transform="rotate(-0, 236.16, 335.860562)" x="236.16" y="335.860562">Input Coin's Heads Probability (λ)</text>
    </g>
   </g>
   <g id="matplotlib.axis_2">
    <g id="ytick_1">
     <g id="line2d_7">
      <defs>
       <path d="M 0 0 
L -3.5 0 
" id="mfbb738b62d" style="stroke:#000000;stroke-width:0.8;"/>
      </defs>
      <g>
       <use style="stroke:#000000;stroke-width:0.8;" x="57.6" xlink:href="#mfbb738b62d" y="305.195991"/>
      </g>
     </g>
     <g id="text_8">
      <text style="font-family:DejaVu Sans;font-size:10px;font-style:normal;font-weight:normal;text-anchor:end;" transform="rotate(-0, 50.6, 308.99521)" x="50.6" y="308.99521">0.0</text>
     </g>
    </g>
    <g id="ytick_2">
     <g id="line2d_8">
      <g>
       <use style="stroke:#000000;stroke-width:0.8;" x="57.6" xlink:href="#mfbb738b62d" y="272.836425"/>
      </g>
     </g>
     <g id="text_9">
      <text style="font-family:DejaVu Sans;font-size:10px;font-style:normal;font-weight:normal;text-anchor:end;" transform="rotate(-0, 50.6, 276.635643)" x="50.6" y="276.635643">2.5</text>
     </g>
    </g>
    <g id="ytick_3">
     <g id="line2d_9">
      <g>
       <use style="stroke:#000000;stroke-width:0.8;" x="57.6" xlink:href="#mfbb738b62d" y="240.476858"/>
      </g>
     </g>
     <g id="text_10">
      <text style="font-family:DejaVu Sans;font-size:10px;font-style:normal;font-weight:normal;text-anchor:end;" transform="rotate(-0, 50.6, 244.276077)" x="50.6" y="244.276077">5.0</text>
     </g>
    </g>
    <g id="ytick_4">
     <g id="line2d_10">
      <g>
       <use style="stroke:#000000;stroke-width:0.8;" x="57.6" xlink:href="#mfbb738b62d" y="208.117291"/>
      </g>
     </g>
     <g id="text_11">
      <text style="font-family:DejaVu Sans;font-size:10px;font-style:normal;font-weight:normal;text-anchor:end;" transform="rotate(-0, 50.6, 211.91651)" x="50.6" y="211.91651">7.5</text>
     </g>
    </g>
    <g id="ytick_5">
     <g id="line2d_11">
      <g>
       <use style="stroke:#000000;stroke-width:0.8;" x="57.6" xlink:href="#mfbb738b62d" y="175.757724"/>
      </g>
     </g>
     <g id="text_12">
      <text style="font-family:DejaVu Sans;font-size:10px;font-style:normal;font-weight:normal;text-anchor:end;" transform="rotate(-0, 50.6, 179.556943)" x="50.6" y="179.556943">10.0</text>
     </g>
    </g>
    <g id="ytick_6">
     <g id="line2d_12">
      <g>
       <use style="stroke:#000000;stroke-width:0.8;" x="57.6" xlink:href="#mfbb738b62d" y="143.398157"/>
      </g>
     </g>
     <g id="text_13">
      <text style="font-family:DejaVu Sans;font-size:10px;font-style:normal;font-weight:normal;text-anchor:end;" transform="rotate(-0, 50.6, 147.197376)" x="50.6" y="147.197376">12.5</text>
     </g>
    </g>
    <g id="ytick_7">
     <g id="line2d_13">
      <g>
       <use style="stroke:#000000;stroke-width:0.8;" x="57.6" xlink:href="#mfbb738b62d" y="111.038591"/>
      </g>
     </g>
     <g id="text_14">
      <text style="font-family:DejaVu Sans;font-size:10px;font-style:normal;font-weight:normal;text-anchor:end;" transform="rotate(-0, 50.6, 114.837809)" x="50.6" y="114.837809">15.0</text>
     </g>
    </g>
    <g id="ytick_8">
     <g id="line2d_14">
      <g>
       <use style="stroke:#000000;stroke-width:0.8;" x="57.6" xlink:href="#mfbb738b62d" y="78.679024"/>
      </g>
     </g>
     <g id="text_15">
      <text style="font-family:DejaVu Sans;font-size:10px;font-style:normal;font-weight:normal;text-anchor:end;" transform="rotate(-0, 50.6, 82.478243)" x="50.6" y="82.478243">17.5</text>
     </g>
    </g>
    <g id="ytick_9">
     <g id="line2d_15">
      <g>
       <use style="stroke:#000000;stroke-width:0.8;" x="57.6" xlink:href="#mfbb738b62d" y="46.319457"/>
      </g>
     </g>
     <g id="text_16">
      <text style="font-family:DejaVu Sans;font-size:10px;font-style:normal;font-weight:normal;text-anchor:end;" transform="rotate(-0, 50.6, 50.118676)" x="50.6" y="50.118676">20.0</text>
     </g>
    </g>
    <g id="text_17">
     <text style="font-family:DejaVu Sans;font-size:10px;font-style:normal;font-weight:normal;text-anchor:middle;" transform="rotate(-90, 22.254687, 174.528)" x="22.254687" y="174.528">Coin Flips Needed</text>
    </g>
   </g>
   <g id="line2d_16">
    <path clip-path="url(#p1f9afcb76d)" d="M 73.832727 213.586858 
L 77.112066 281.766396 
L 80.391405 285.223915 
L 83.670744 286.961318 
L 86.950083 288.077386 
L 90.229421 288.880402 
L 93.50876 289.497763 
L 96.788099 289.99359 
L 100.067438 290.404363 
L 103.346777 290.752671 
L 106.626116 291.053389 
L 109.905455 291.316794 
L 113.184793 291.550259 
L 116.464132 291.759233 
L 119.743471 291.947853 
L 123.02281 292.119323 
L 126.302149 292.276174 
L 129.581488 292.420433 
L 132.860826 292.55375 
L 136.140165 292.677482 
L 139.419504 292.792758 
L 142.698843 292.900527 
L 145.978182 293.001593 
L 149.257521 293.096642 
L 152.53686 293.186265 
L 155.816198 293.270973 
L 159.095537 293.351211 
L 162.374876 293.427369 
L 165.654215 293.499791 
L 168.933554 293.56878 
L 172.212893 293.634605 
L 175.492231 293.697508 
L 178.77157 293.757703 
L 182.050909 293.815385 
L 185.330248 293.870726 
L 188.609587 293.923886 
L 191.888926 293.975006 
L 195.168264 294.024217 
L 198.447603 294.071638 
L 201.726942 294.117377 
L 205.006281 294.161533 
L 208.28562 294.204197 
L 211.564959 294.245454 
L 214.844298 294.28538 
L 218.123636 294.324047 
L 221.402975 294.361521 
L 224.682314 294.397863 
L 227.961653 294.433131 
L 231.240992 294.467377 
L 234.520331 294.500651 
L 237.799669 294.532998 
L 241.079008 294.564462 
L 244.358347 294.595082 
L 247.637686 294.624898 
L 250.917025 294.653942 
L 254.196364 294.68225 
L 257.475702 294.709852 
L 260.755041 294.736778 
L 264.03438 294.763055 
L 267.313719 294.788709 
L 270.593058 294.813764 
L 273.872397 294.838245 
L 277.151736 294.862173 
L 280.431074 294.885569 
L 283.710413 294.908452 
L 286.989752 294.930842 
L 290.269091 294.952756 
L 293.54843 294.974211 
L 296.827769 294.995222 
L 300.107107 295.015806 
L 303.386446 295.035977 
L 306.665785 295.055749 
L 309.945124 295.075134 
L 313.224463 295.094146 
L 316.503802 295.112795 
L 319.78314 295.131095 
L 323.062479 295.149056 
L 326.341818 295.166688 
L 329.621157 295.184001 
L 332.900496 295.201005 
L 336.179835 295.217709 
L 339.459174 295.234122 
L 342.738512 295.250253 
L 346.017851 295.266109 
L 349.29719 295.281698 
L 352.576529 295.297028 
L 355.855868 295.312106 
L 359.135207 295.326939 
L 362.414545 295.341533 
L 365.693884 295.355896 
L 368.973223 295.370032 
L 372.252562 295.383948 
L 375.531901 295.39765 
L 378.81124 295.411143 
L 382.090579 295.424433 
L 385.369917 295.437524 
L 388.649256 295.450421 
L 391.928595 295.46313 
L 395.207934 295.475655 
L 398.487273 295.488 
" style="fill:none;stroke:#1f77b4;stroke-linecap:square;stroke-width:1.5;"/>
   </g>
   <g id="line2d_17">
    <path clip-path="url(#p1f9afcb76d)" d="M 73.832727 53.568 
L 77.112066 257.614484 
L 80.391405 267.995433 
L 83.670744 276.797236 
L 86.950083 278.894136 
L 90.229421 278.971798 
L 93.50876 281.638227 
L 96.788099 278.583484 
L 100.067438 281.560564 
L 103.346777 281.81944 
L 106.626116 280.809822 
L 109.905455 282.984385 
L 113.184793 284.408206 
L 116.464132 283.139711 
L 119.743471 285.158948 
L 123.02281 283.786902 
L 126.302149 285.055397 
L 129.581488 284.718858 
L 132.860826 286.375667 
L 136.140165 287.307623 
L 139.419504 287.307623 
L 142.698843 287.048746 
L 145.978182 287.204072 
L 149.257521 286.45333 
L 152.53686 287.644162 
L 155.816198 286.738095 
L 159.095537 286.45333 
L 162.374876 287.721825 
L 165.654215 287.773601 
L 168.933554 287.385286 
L 172.212893 288.00659 
L 175.492231 288.058365 
L 178.77157 288.705556 
L 182.050909 288.136028 
L 185.330248 288.498455 
L 188.609587 287.592387 
L 191.888926 288.369017 
L 195.168264 289.016208 
L 198.447603 288.44668 
L 201.726942 288.912657 
L 205.006281 288.653781 
L 208.28562 289.637512 
L 211.564959 288.136028 
L 214.844298 288.938545 
L 218.123636 289.145646 
L 221.402975 289.067983 
L 224.682314 289.145646 
L 227.961653 289.689287 
L 231.240992 289.611624 
L 234.520331 290.103489 
L 237.799669 289.792838 
L 241.079008 288.757331 
L 244.358347 289.999939 
L 247.637686 290.103489 
L 250.917025 290.103489 
L 254.196364 289.818725 
L 257.475702 290.440029 
L 260.755041 290.129377 
L 264.03438 290.181152 
L 267.313719 290.517692 
L 270.593058 290.388254 
L 273.872397 290.621243 
L 277.151736 290.491804 
L 280.431074 290.673018 
L 283.710413 290.64713 
L 286.989752 291.009557 
L 290.269091 291.113108 
L 293.54843 290.724793 
L 296.827769 291.035445 
L 300.107107 290.957782 
L 303.386446 291.216659 
L 306.665785 291.190771 
L 309.945124 291.08722 
L 313.224463 291.164883 
L 316.503802 291.164883 
L 319.78314 290.880119 
L 323.062479 291.449647 
L 326.341818 291.346097 
L 329.621157 291.708524 
L 332.900496 291.371984 
L 336.179835 291.708524 
L 339.459174 291.216659 
L 342.738512 291.501423 
L 346.017851 291.475535 
L 349.29719 291.475535 
L 352.576529 291.734412 
L 355.855868 291.941513 
L 359.135207 291.760299 
L 362.414545 291.941513 
L 365.693884 291.941513 
L 368.973223 291.941513 
L 372.252562 291.9674 
L 375.531901 291.86385 
L 378.81124 291.9674 
L 382.090579 292.148614 
L 385.369917 292.174502 
L 388.649256 292.148614 
L 391.928595 292.252165 
L 395.207934 292.226277 
L 398.487273 292.252165 
" style="fill:none;stroke:#ff7f0e;stroke-linecap:square;stroke-width:1.5;"/>
   </g>
   <g id="patch_3">
    <path d="M 57.6 307.584 
L 57.6 41.472 
" style="fill:none;stroke:#000000;stroke-linecap:square;stroke-linejoin:miter;stroke-width:0.8;"/>
   </g>
   <g id="patch_4">
    <path d="M 414.72 307.584 
L 414.72 41.472 
" style="fill:none;stroke:#000000;stroke-linecap:square;stroke-linejoin:miter;stroke-width:0.8;"/>
   </g>
   <g id="patch_5">
    <path d="M 57.6 307.584 
L 414.72 307.584 
" style="fill:none;stroke:#000000;stroke-linecap:square;stroke-linejoin:miter;stroke-width:0.8;"/>
   </g>
   <g id="patch_6">
    <path d="M 57.6 41.472 
L 414.72 41.472 
" style="fill:none;stroke:#000000;stroke-linecap:square;stroke-linejoin:miter;stroke-width:0.8;"/>
   </g>
   <g id="text_18">
    <text style="font-family:DejaVu Sans;font-size:12px;font-style:normal;font-weight:normal;text-anchor:middle;" transform="rotate(-0, 236.16, 35.472)" x="236.16" y="35.472">Coin Flips for pow(x,3/4)</text>
   </g>
   <g id="legend_1">
    <g id="patch_7">
     <path d="M 226.915312 78.82825 
L 407.72 78.82825 
Q 409.72 78.82825 409.72 76.82825 
L 409.72 48.472 
Q 409.72 46.472 407.72 46.472 
L 226.915312 46.472 
Q 224.915312 46.472 224.915312 48.472 
L 224.915312 76.82825 
Q 224.915312 78.82825 226.915312 78.82825 
z
" style="fill:#ffffff;opacity:0.8;stroke:#cccccc;stroke-linejoin:miter;"/>
    </g>
    <g id="line2d_18">
     <path d="M 228.915312 54.570437 
L 248.915312 54.570437 
" style="fill:none;stroke:#1f77b4;stroke-linecap:square;stroke-width:1.5;"/>
    </g>
    <g id="line2d_19"/>
    <g id="text_19">
     <text style="font-family:DejaVu Sans;font-size:10px;font-style:normal;font-weight:normal;text-anchor:start;" transform="rotate(-0, 256.915313, 58.070437)" x="256.915313" y="58.070437">Coin Flip Lower Bound</text>
    </g>
    <g id="line2d_20">
     <path d="M 228.915312 69.248562 
L 248.915312 69.248562 
" style="fill:none;stroke:#ff7f0e;stroke-linecap:square;stroke-width:1.5;"/>
    </g>
    <g id="line2d_21"/>
    <g id="text_20">
     <text style="font-family:DejaVu Sans;font-size:10px;font-style:normal;font-weight:normal;text-anchor:start;" transform="rotate(-0, 256.915313, 72.748562)" x="256.915313" y="72.748562">Avg. Coins Flipped pow(x,3/4)</text>
    </g>
   </g>
  </g>
 </g>
 <defs>
  <clipPath id="p1f9afcb76d">
   <rect height="266.112" width="357.12" x="57.6" y="41.472"/>
  </clipPath>
 </defs>
</svg>

<svg height="460.8" viewBox="0 0 460.8 345.6" width="614.4" xmlns="http://www.w3.org/2000/svg" xmlns:xlink="http://www.w3.org/1999/xlink"><defs><style>*{stroke-linecap:butt;stroke-linejoin:round}</style></defs><g id="figure_1"><path d="M0 345.6h460.8V0H0z" fill="#fff" id="patch_1"/><g id="axes_1"><path d="M57.6 307.584h357.12V41.472H57.6z" fill="#fff" id="patch_2"/><g id="matplotlib.axis_1"><g id="xtick_1"><g id="line2d_1"><defs><path d="M0 0v3.5" id="ma28374aa8e" stroke="#000" stroke-width=".8"/></defs><use x="73.8" xlink:href="#ma28374aa8e" y="307.584" stroke="#000" stroke-width=".8"/></g><text x="73.8" y="322.182" font-family="DejaVu Sans" font-size="10" font-weight="400" text-anchor="middle" id="text_1">0.0</text></g><g id="xtick_2"><use x="138.744" xlink:href="#ma28374aa8e" y="307.584" stroke="#000" stroke-width=".8" id="line2d_2"/><text x="138.744" y="322.182" font-family="DejaVu Sans" font-size="10" font-weight="400" text-anchor="middle" id="text_2">0.2</text></g><g id="xtick_3"><use x="203.688" xlink:href="#ma28374aa8e" y="307.584" stroke="#000" stroke-width=".8" id="line2d_3"/><text x="203.688" y="322.182" font-family="DejaVu Sans" font-size="10" font-weight="400" text-anchor="middle" id="text_3">0.4</text></g><g id="xtick_4"><use x="268.632" xlink:href="#ma28374aa8e" y="307.584" stroke="#000" stroke-width=".8" id="line2d_4"/><text x="268.632" y="322.182" font-family="DejaVu Sans" font-size="10" font-weight="400" text-anchor="middle" id="text_4">0.6</text></g><g id="xtick_5"><use x="333.576" xlink:href="#ma28374aa8e" y="307.584" stroke="#000" stroke-width=".8" id="line2d_5"/><text x="333.576" y="322.182" font-family="DejaVu Sans" font-size="10" font-weight="400" text-anchor="middle" id="text_5">0.8</text></g><g id="xtick_6"><use x="398.52" xlink:href="#ma28374aa8e" y="307.584" stroke="#000" stroke-width=".8" id="line2d_6"/><text x="398.52" y="322.182" font-family="DejaVu Sans" font-size="10" font-weight="400" text-anchor="middle" id="text_6">1.0</text></g><text x="236.16" y="335.861" font-family="DejaVu Sans" font-size="10" font-weight="400" text-anchor="middle" id="text_7">Input Coin&apos;s Heads Probability (λ)</text></g><g id="matplotlib.axis_2"><g id="ytick_1"><g id="line2d_7"><defs><path d="M0 0h-3.5" id="mfbb738b62d" stroke="#000" stroke-width=".8"/></defs><use x="57.6" xlink:href="#mfbb738b62d" y="305.196" stroke="#000" stroke-width=".8"/></g><text x="50.6" y="308.995" font-family="DejaVu Sans" font-size="10" font-weight="400" text-anchor="end" id="text_8">0.0</text></g><g id="ytick_2"><use x="57.6" xlink:href="#mfbb738b62d" y="272.836" stroke="#000" stroke-width=".8" id="line2d_8"/><text x="50.6" y="276.636" font-family="DejaVu Sans" font-size="10" font-weight="400" text-anchor="end" id="text_9">2.5</text></g><g id="ytick_3"><use x="57.6" xlink:href="#mfbb738b62d" y="240.477" stroke="#000" stroke-width=".8" id="line2d_9"/><text x="50.6" y="244.276" font-family="DejaVu Sans" font-size="10" font-weight="400" text-anchor="end" id="text_10">5.0</text></g><g id="ytick_4"><use x="57.6" xlink:href="#mfbb738b62d" y="208.117" stroke="#000" stroke-width=".8" id="line2d_10"/><text x="50.6" y="211.917" font-family="DejaVu Sans" font-size="10" font-weight="400" text-anchor="end" id="text_11">7.5</text></g><g id="ytick_5"><use x="57.6" xlink:href="#mfbb738b62d" y="175.758" stroke="#000" stroke-width=".8" id="line2d_11"/><text x="50.6" y="179.557" font-family="DejaVu Sans" font-size="10" font-weight="400" text-anchor="end" id="text_12">10.0</text></g><g id="ytick_6"><use x="57.6" xlink:href="#mfbb738b62d" y="143.398" stroke="#000" stroke-width=".8" id="line2d_12"/><text x="50.6" y="147.197" font-family="DejaVu Sans" font-size="10" font-weight="400" text-anchor="end" id="text_13">12.5</text></g><g id="ytick_7"><use x="57.6" xlink:href="#mfbb738b62d" y="111.039" stroke="#000" stroke-width=".8" id="line2d_13"/><text x="50.6" y="114.838" font-family="DejaVu Sans" font-size="10" font-weight="400" text-anchor="end" id="text_14">15.0</text></g><g id="ytick_8"><use x="57.6" xlink:href="#mfbb738b62d" y="78.679" stroke="#000" stroke-width=".8" id="line2d_14"/><text x="50.6" y="82.478" font-family="DejaVu Sans" font-size="10" font-weight="400" text-anchor="end" id="text_15">17.5</text></g><g id="ytick_9"><use x="57.6" xlink:href="#mfbb738b62d" y="46.319" stroke="#000" stroke-width=".8" id="line2d_15"/><text x="50.6" y="50.119" font-family="DejaVu Sans" font-size="10" font-weight="400" text-anchor="end" id="text_16">20.0</text></g><text transform="rotate(-90 22.255 174.528)" x="22.255" y="174.528" font-family="DejaVu Sans" font-size="10" font-weight="400" text-anchor="middle" id="text_17">Coin Flips Needed</text></g><path clip-path="url(#p1f9afcb76d)" d="M73.833 213.587l3.28 68.18 3.278 3.457 3.28 1.737 3.28 1.116 3.278.803 3.28.618 3.28.496 3.278.41 3.28.349 3.28.3 3.278.264 3.28.233 3.28.21 3.278.188 3.28.171 3.28.157 3.278.144 3.28.134 3.28.123 3.279.116 3.279.108 3.28.1 3.279.096 3.279.09 3.28.084 3.279.08 3.279.076 3.28.073 3.279.069 3.279.066 3.28.063 3.279.06 3.279.057 3.28.056 3.279.053 3.279.051 3.28.05 3.279.047 3.279.045 3.28.045 3.279.042 3.279.041 3.28.04 3.279.039 3.279.038 3.28.036 3.279.035 3.279.034 3.28.034 3.279.032 3.279.031 3.28.031 3.279.03 3.279.029 3.28.028 3.279.028 3.279.027 3.28.026 3.279.026 3.28.025 3.278.024 3.28.024 3.28.024 3.278.022 3.28.023 3.28.022 3.278.021 3.28.021 3.28.02 3.278.021 3.28.02 3.28.02 3.278.018 3.28.019 3.28.018 3.278.018 3.28.018 3.28.017 3.278.017 3.28.017 3.28.016 3.279.016 3.279.016 3.28.016 3.279.015 3.279.015 3.28.015 3.279.015 3.279.014 3.28.014 3.279.014 3.279.014 3.28.013 3.279.013 3.279.014 3.28.012 3.279.013 3.279.013 3.28.012" fill="none" stroke="#1f77b4" stroke-linecap="square" stroke-width="1.5" id="line2d_16"/><path clip-path="url(#p1f9afcb76d)" d="M73.833 53.568l3.28 204.046 3.278 10.381 3.28 8.802 3.28 2.097 3.278.078 3.28 2.666 3.28-3.055 3.278 2.978 3.28.258 3.28-1.01 3.278 2.175 3.28 1.424 3.28-1.268 3.278 2.019 3.28-1.372 3.28 1.268 3.278-.336 3.28 1.657 3.28.932h3.279l3.279-.26 3.28.156 3.279-.75 3.279 1.19 3.28-.906 3.279-.285 3.279 1.269 3.28.052 3.279-.389 3.279.622 3.28.051 3.279.648 3.279-.57 3.28.362 3.279-.906 3.279.777 3.28.647 3.279-.57 3.279.467 3.28-.26 3.279.985 3.279-1.502 3.28.803 3.279.207 3.279-.078 3.28.078 3.279.543 3.279-.077 3.28.491 3.279-.31 3.279-1.036 3.28 1.243 3.279.103h3.279l3.28-.284 3.279.621 3.279-.31 3.28.051 3.279.337 3.28-.13 3.278.233 3.28-.13 3.28.182 3.278-.026 3.28.363 3.28.103 3.278-.388 3.28.31 3.28-.077 3.278.259 3.28-.026 3.28-.104 3.278.078h3.28l3.28-.285 3.278.57 3.28-.104 3.28.363 3.278-.337 3.28.337 3.28-.492 3.279.284 3.279-.025h3.28l3.279.258 3.279.208 3.28-.182 3.279.182H368.974l3.279.025 3.279-.103 3.28.103 3.279.182 3.279.026 3.28-.026 3.279.103 3.279-.026 3.28.026" fill="none" stroke="#ff7f0e" stroke-linecap="square" stroke-width="1.5" id="line2d_17"/><path d="M57.6 307.584V41.472" fill="none" stroke="#000" stroke-linecap="square" stroke-width=".8" id="patch_3"/><path d="M414.72 307.584V41.472" fill="none" stroke="#000" stroke-linecap="square" stroke-width=".8" id="patch_4"/><path d="M57.6 307.584h357.12" fill="none" stroke="#000" stroke-linecap="square" stroke-width=".8" id="patch_5"/><path d="M57.6 41.472h357.12" fill="none" stroke="#000" stroke-linecap="square" stroke-width=".8" id="patch_6"/><text x="236.16" y="35.472" font-family="DejaVu Sans" font-size="12" font-weight="400" text-anchor="middle" id="text_18">Coin Flips for pow(x,3/4)</text><g id="legend_1"><path d="M226.915 78.828H407.72q2 0 2-2V48.472q0-2-2-2H226.915q-2 0-2 2v28.356q0 2 2 2z" fill="#fff" opacity=".8" stroke="#ccc" id="patch_7"/><path d="M228.915 54.57h20" fill="none" stroke="#1f77b4" stroke-linecap="square" stroke-width="1.5" id="line2d_18"/><text x="256.915" y="58.07" font-family="DejaVu Sans" font-size="10" font-weight="400" id="text_19">Coin Flip Lower Bound</text><path d="M228.915 69.249h20" fill="none" stroke="#ff7f0e" stroke-linecap="square" stroke-width="1.5" id="line2d_20"/><text x="256.915" y="72.749" font-family="DejaVu Sans" font-size="10" font-weight="400" id="text_20">Avg. Coins Flipped pow(x,3/4)</text></g></g></g><defs><clipPath id="p1f9afcb76d"><path d="M57.6 41.472h357.12v266.112H57.6z"/></clipPath></defs></svg>
